X: 22215
T: La Cochinchine
R: polka
M: 2/4
K: Gmajor
|:dd/d/ B/G/B/d/|B/G/B/d/ d/c/A/F/|dd/d/ B/G/B/d/|d/c/A/F/ G2:|
|:BB/B/ G/E/E/E/|cc/c/ A/F/F/F/|dd/d/ B/G/B/d/|d/c/A/F/ G2:|

